!!!OTL: Guafeng luoyu bu jiu qing
!!!ARE: Asia, China,ÿZhejiang, Zhoushan
!! III, 639
!!!SCT: C1627
!!!YEM: Copyright 1995, estate of Helmut Schaffrath.
**kern
*ICvox
*Ivox
*M2/4
*k[]
*C:
{16gg
16dd
8r
16gg
16dd
8r
=1
8gg
[4.dd
=2
2dd]}
=3
{16cc
8.dd
16cc
8.dd
=4
8cc
8ee
8dd
[8dd
=5
2dd]}
=6
{16cc
8a
16r
16cc
16a
8r
=7
8cc
[4.a
=8
2a]}
=9
{8g
8a
8g
8a
=10
8g
8a
8g
[8d
=11
2d]}
=12
{8d
8d
8d
8d
=13
8f
8a
8g
[8g
=14
2g]}
=15
{8f
8f
8d
8d
=16
4c
[4d
=17
2d_
=18
2d]}
==
!!!AGN: Xiaodiao, Kudiao
!!!AMT: simple duple
!!!AIN: vox
!!!EED: Helmut Schaffrath
!!!EEV: 1.0
*-
!!!ONB: Tied note syntax fixed by Craig Sapp, 2004/05/03/
